; generated by PrusaSlicer 2.7.2+win64 on 2024-03-28 at 17:22:50 UTC


;
;

;
;

;
;

;
;
; 

; external perimeters extrusion width = 0.45mm
; perimeters extrusion width = 0.45mm
; infill extrusion width = 0.45mm
; solid infill extrusion width = 0.45mm
; top infill extrusion width = 0.40mm
; support material extrusion width = 0.35mm
; first layer extrusion width = 0.42mm

; external perimeters extrusion width = 0.45mm
; perimeters extrusion width = 0.45mm
; infill extrusion width = 0.45mm
; solid infill extrusion width = 0.45mm
; top infill extrusion width = 0.40mm
; support material extrusion width = 0.35mm
; first layer extrusion width = 0.42mm

M73 P0 R220
M201 X2500 Y2500 Z400 E5000 ; sets maximum accelerations, mm/sec^2
M203 X180 Y180 Z12 E80 ; sets maximum feedrates, mm / sec
M204 P2000 R1250 T2500 ; sets acceleration (P, T) and retract acceleration (R), mm/sec^2
M205 X8.00 Y8.00 Z2.00 E10.00 ; sets the jerk limits, mm/sec
M205 S0 T0 ; sets the minimum extruding and travel feed rate, mm/sec

M486 S0
M486 AMusikWeckerCase_top
M486 S-1
M486 S1
M486 AMusikWeckerCase_bottom
M486 S-1

;TYPE:Custom
M862.3 P "MINI" ; printer model check
G90 ; use absolute coordinates
M83 ; extruder relative mode
M104 S170 ; set extruder temp for bed leveling
M140 S60 ; set bed temp
M109 R170 ; wait for bed leveling temp
M190 S60 ; wait for bed temp
M204 T1250 ; set travel acceleration
G28 ; home all without mesh bed level
G29 ; mesh bed leveling 
M204 T2500 ; restore travel acceleration
M104 S215 ; set extruder temp
G92 E0
G1 Y-2 X179 F2400
G1 Z3 F720
M109 S215 ; wait for extruder temp

; intro line
G1 X170 F1000
G1 Z0.2 F720
G1 X110 E8 F900
G1 X40 E10 F700
G92 E0

M221 S95 ; set flow
G21 ; set units to millimeters
G90 ; use absolute coordinates
M83 ; use relative distances for extrusion

M900 K0.2 ; Filament gcode LA 1.5
; ; Filament gcode LA 1.0




M107
;LAYER_CHANGE
;Z:0.2
;HEIGHT:0.2
G1 E-3.2 F4200
G1 Z.4 F720
G1 X34.143 Y51.214 F9000
G1 Z.2 F720
G1 E3.2 F2400
M204 P600
;TYPE:Skirt/Brim
;WIDTH:0.42
G1 F1200
G1 X96.681 Y9.522 E2.35663
G1 X98 Y9.123 E.04321
G1 X162 Y9.123 E2.00668
G1 X163.307 Y9.515 E.04278
G1 X164.183 Y10.56 E.04275
G1 X164.377 Y11.5 E.03009
G1 X164.377 Y108.5 E3.04137
G1 X163.985 Y109.807 E.04278
G1 X163.319 Y110.478 E.02964
G1 X73.319 Y170.478 E3.39149
G1 X72 Y170.877 E.04321
G1 X8 Y170.877 E2.00668
G1 X6.693 Y170.485 E.04278
G1 X5.817 Y169.44 E.04275
G1 X5.623 Y168.5 E.03009
G1 X5.623 Y71.5 E3.04137
G1 X6.015 Y70.193 E.04278
G1 X6.681 Y69.522 E.02964
G1 X34.093 Y51.248 E1.03296
M204 P1000
M486 S1
G1 E-2.24 F4200
;WIPE_START
G1 F7200
G1 X34.143 Y51.214 E-.03351
G1 X35.534 Y50.287 E-.92649
;WIPE_END
G1 Z.4 F720
G1 X98.787 Y107.713 F9000
G1 Z.2 F720
G1 E3.2 F2400
M204 P600
;TYPE:Perimeter
;WIDTH:0.419999
G1 F1200
G1 X98.787 Y12.287 E2.99201
G1 X161.213 Y12.287 E1.95732
M73 P0 R219
G1 X161.213 Y36.741 E.76674
G1 X161.213 Y107.713 E2.22527
G1 X134.155 Y107.713 E.84838
;WIDTH:0.46425
G1 X134.055 Y107.691 E.00359
;WIDTH:0.5085
G1 X133.956 Y107.669 E.00393
;WIDTH:0.552751
G1 X133.856 Y107.647 E.00434
;WIDTH:0.597001
G2 X133.445 Y107.638 I-.232 J1.189 E.01903
;WIDTH:0.5707
G1 X132.887 Y107.655 E.0245
;WIDTH:0.536438
G1 X132.329 Y107.672 E.02291
;WIDTH:0.502175
G1 X132.288 Y107.673 E.00157
;WIDTH:0.500158
G1 X131.173 Y107.693 E.0424
;WIDTH:0.459104
G1 X131.134 Y107.694 E.00135
;WIDTH:0.458149
G1 X130.019 Y107.701 E.0385
;WIDTH:0.444466
G1 X129.981 Y107.701 E.00127
;WIDTH:0.458458
G1 X128.854 Y107.694 E.03894
;WIDTH:0.459433
G1 X128.814 Y107.693 E.00139
;WIDTH:0.501359
G1 X127.687 Y107.672 E.04297
;WIDTH:0.503424
G1 X127.646 Y107.671 E.00157
;WIDTH:0.53843
G1 X127.082 Y107.654 E.02325
;WIDTH:0.573436
G1 X126.519 Y107.636 E.02485
;WIDTH:0.596931
G2 X126.143 Y107.647 I-.16 J1.041 E.01742
;WIDTH:0.552698
G1 X126.043 Y107.669 E.00434
;WIDTH:0.508465
G1 X125.943 Y107.691 E.00396
;WIDTH:0.464232
G1 X125.844 Y107.713 E.00355
;WIDTH:0.419999
G1 X98.847 Y107.713 E.84647
M204 P1000
G1 X98.41 Y108.09 F9000
M204 P600
;TYPE:External perimeter
G1 F1200
G1 X98.41 Y11.91 E3.01565
G1 X161.59 Y11.91 E1.98096
G1 X161.59 Y36.741 E.77856
G1 X161.59 Y108.09 E2.23709
G1 X98.47 Y108.09 E1.97908
M204 P1000
G1 E-2.24 F4200
;WIPE_START
G1 F7200
G1 X98.41 Y108.09 E-.03325
G1 X98.41 Y106.418 E-.92675
;WIPE_END
G1 Z.4 F720
G1 X112.603 Y99.483 F9000
G1 Z.2 F720
G1 E3.2 F2400
M204 P600
;TYPE:Perimeter
G1 F1200
G3 X134.087 Y106.919 I17.389 J-15.486 E3.84249
;WIDTH:0.46425
G1 X133.992 Y106.958 E.0036
;WIDTH:0.5085
G1 X133.898 Y106.997 E.00394
;WIDTH:0.552751
G1 X133.804 Y107.036 E.00431
;WIDTH:0.597001
G3 X133.412 Y107.112 I-.409 J-1.057 E.01849
;WIDTH:0.5707
G1 X132.857 Y107.163 E.02446
;WIDTH:0.536438
G1 X132.301 Y107.214 E.02291
;WIDTH:0.502175
G1 X132.272 Y107.216 E.00111
;WIDTH:0.500158
G1 X131.158 Y107.278 E.04242
;WIDTH:0.459104
G1 X131.129 Y107.279 E.001
;WIDTH:0.458149
G1 X130.014 Y107.299 E.0385
;WIDTH:0.444466
G1 X129.986 Y107.299 E.00093
;WIDTH:0.458458
G1 X128.859 Y107.278 E.03895
;WIDTH:0.459433
G1 X128.83 Y107.277 E.001
;WIDTH:0.501359
G1 X127.704 Y107.214 E.04299
;WIDTH:0.503424
G1 X127.674 Y107.212 E.00115
;WIDTH:0.53843
G1 X127.113 Y107.16 E.02321
;WIDTH:0.573436
G1 X126.551 Y107.108 E.0249
;WIDTH:0.596931
G1 X126.29 Y107.075 E.01212
G1 X126.196 Y107.036 E.00469
;WIDTH:0.552698
G1 X126.101 Y106.997 E.00435
;WIDTH:0.508465
G1 X126.007 Y106.958 E.00394
;WIDTH:0.464232
G1 X125.913 Y106.919 E.00357
;WIDTH:0.419999
G3 X115.99 Y102.601 I4.044 J-22.857 E.34246
G3 X112.643 Y99.527 I14.002 J-18.604 E.14271
M204 P1000
G1 X112.643 Y99.527 F9000
G1 X112.885 Y99.231
M204 P600
;TYPE:External perimeter
G1 F1200
G3 X126.37 Y106.616 I17.108 J-15.234 E4.02115
G3 X114.479 Y100.851 I3.639 J-22.653 E.42029
G3 X112.925 Y99.275 I15.514 J-16.854 E.06942
M204 P1000
G1 E-2.24 F4200
;WIPE_START
G1 F7200
G1 X112.885 Y99.231 E-.03295
G3 X111.819 Y97.942 I17.107 J-15.234 E-.92705
;WIPE_END
G1 Z.4 F720
G1 X161.043 Y13.221 F9000
G1 Z.2 F720
G1 E3.2 F2400
M204 P600
;TYPE:Solid infill
;WIDTH:0.421121
G1 F1200
G1 X160.448 Y12.626 E.02646
G1 X159.913 Y12.626 E.01682
G1 X160.874 Y13.587 E.04274
G1 X160.874 Y14.121 E.01679
G1 X159.379 Y12.626 E.06649
G1 X158.844 Y12.626 E.01682
G1 X160.874 Y14.656 E.09028
G1 X160.874 Y15.191 E.01682
G1 X158.309 Y12.626 E.11407
G1 X157.774 Y12.626 E.01682
G1 X160.874 Y15.726 E.13787
G1 X160.874 Y16.261 E.01682
G1 X157.239 Y12.626 E.16166
G1 X156.704 Y12.626 E.01682
G1 X160.874 Y16.796 E.18545
G1 X160.874 Y17.331 E.01682
G1 X156.169 Y12.626 E.20925
G1 X155.635 Y12.626 E.01679
G1 X160.874 Y17.865 E.233
G1 X160.874 Y18.4 E.01682
G1 X155.1 Y12.626 E.25679
G1 X154.565 Y12.626 E.01682
G1 X160.874 Y18.935 E.28058
G1 X160.874 Y19.47 E.01682
G1 X154.03 Y12.626 E.30438
G1 X153.495 Y12.626 E.01682
G1 X160.874 Y20.005 E.32817
G1 X160.874 Y20.54 E.01682
G1 X152.96 Y12.626 E.35196
G1 X152.425 Y12.626 E.01682
G1 X160.874 Y21.075 E.37576
G1 X160.874 Y21.609 E.01679
G1 X151.891 Y12.626 E.39951
G1 X151.356 Y12.626 E.01682
G1 X160.874 Y22.144 E.4233
G1 X160.874 Y22.679 E.01682
G1 X150.821 Y12.626 E.44709
G1 X150.286 Y12.626 E.01682
G1 X160.874 Y23.214 E.47089
G1 X160.874 Y23.749 E.01682
G1 X149.751 Y12.626 E.49468
G1 X149.216 Y12.626 E.01682
G1 X160.874 Y24.284 E.51847
G1 X160.874 Y24.819 E.01682
G1 X148.681 Y12.626 E.54227
G1 X148.147 Y12.626 E.01679
G1 X160.874 Y25.353 E.56601
G1 X160.874 Y25.888 E.01682
G1 X147.612 Y12.626 E.58981
G1 X147.077 Y12.626 E.01682
G1 X160.874 Y26.423 E.6136
G1 X160.874 Y26.958 E.01682
G1 X146.542 Y12.626 E.63739
G1 X146.007 Y12.626 E.01682
G1 X160.874 Y27.493 E.66119
G1 X160.874 Y28.028 E.01682
M73 P0 R218
G1 X145.472 Y12.626 E.68498
G1 X144.937 Y12.626 E.01682
G1 X160.874 Y28.563 E.70877
G1 X160.874 Y29.097 E.01679
G1 X144.403 Y12.626 E.73252
G1 X143.868 Y12.626 E.01682
G1 X160.874 Y29.632 E.75632
G1 X160.874 Y30.167 E.01682
G1 X143.333 Y12.626 E.78011
G1 X142.798 Y12.626 E.01682
G1 X160.874 Y30.702 E.8039
G1 X160.874 Y31.237 E.01682
G1 X142.263 Y12.626 E.8277
G1 X141.728 Y12.626 E.01682
G1 X160.874 Y31.772 E.85149
G1 X160.874 Y32.307 E.01682
G1 X141.193 Y12.626 E.87528
G1 X140.659 Y12.626 E.01679
G1 X160.874 Y32.841 E.89903
G1 X160.874 Y33.376 E.01682
G1 X140.124 Y12.626 E.92283
G1 X139.589 Y12.626 E.01682
G1 X160.874 Y33.911 E.94662
G1 X160.874 Y34.446 E.01682
G1 X139.054 Y12.626 E.97041
G1 X138.519 Y12.626 E.01682
G1 X160.874 Y34.981 E.99421
G1 X160.874 Y35.516 E.01682
G1 X137.984 Y12.626 E1.018
G1 X137.449 Y12.626 E.01682
G1 X160.874 Y36.051 E1.04179
G1 X160.874 Y36.585 E.01679
G1 X136.915 Y12.626 E1.06554
G1 X136.38 Y12.626 E.01682
M73 P1 R218
G1 X160.874 Y37.12 E1.08933
G1 X160.874 Y37.655 E.01682
G1 X135.845 Y12.626 E1.11313
G1 X135.31 Y12.626 E.01682
G1 X160.874 Y38.19 E1.13692
G1 X160.874 Y38.725 E.01682
G1 X134.775 Y12.626 E1.16071
G1 X134.24 Y12.626 E.01682
G1 X160.874 Y39.26 E1.18451
G1 X160.874 Y39.795 E.01682
G1 X133.705 Y12.626 E1.2083
G1 X133.171 Y12.626 E.01679
G1 X160.874 Y40.329 E1.23205
G1 X160.874 Y40.864 E.01682
G1 X132.636 Y12.626 E1.25584
G1 X132.101 Y12.626 E.01682
G1 X160.874 Y41.399 E1.27964
G1 X160.874 Y41.934 E.01682
G1 X131.566 Y12.626 E1.30343
G1 X131.031 Y12.626 E.01682
G1 X160.874 Y42.469 E1.32722
G1 X160.874 Y43.004 E.01682
G1 X130.496 Y12.626 E1.35102
G1 X129.961 Y12.626 E.01682
G1 X160.874 Y43.539 E1.37481
G1 X160.874 Y44.073 E.01679
G1 X129.427 Y12.626 E1.39856
G1 X128.892 Y12.626 E.01682
G1 X160.874 Y44.608 E1.42235
G1 X160.874 Y45.143 E.01682
G1 X128.357 Y12.626 E1.44615
G1 X127.822 Y12.626 E.01682
G1 X160.874 Y45.678 E1.46994
G1 X160.874 Y46.213 E.01682
G1 X127.287 Y12.626 E1.49373
G1 X126.752 Y12.626 E.01682
M73 P1 R217
G1 X160.874 Y46.748 E1.51753
G1 X160.874 Y47.283 E.01682
G1 X126.217 Y12.626 E1.54132
G1 X125.683 Y12.626 E.01679
G1 X160.874 Y47.817 E1.56507
G1 X160.874 Y48.352 E.01682
G1 X125.148 Y12.626 E1.58886
G1 X124.613 Y12.626 E.01682
G1 X160.874 Y48.887 E1.61266
G1 X160.874 Y49.422 E.01682
G1 X124.078 Y12.626 E1.63645
G1 X123.543 Y12.626 E.01682
G1 X160.874 Y49.957 E1.66024
G1 X160.874 Y50.492 E.01682
G1 X123.008 Y12.626 E1.68404
G1 X122.473 Y12.626 E.01682
G1 X160.874 Y51.027 E1.70783
G1 X160.874 Y51.561 E.01679
G1 X121.939 Y12.626 E1.73158
G1 X121.404 Y12.626 E.01682
G1 X160.874 Y52.096 E1.75537
G1 X160.874 Y52.631 E.01682
G1 X120.869 Y12.626 E1.77916
G1 X120.334 Y12.626 E.01682
G1 X160.874 Y53.166 E1.80296
G1 X160.874 Y53.701 E.01682
G1 X119.799 Y12.626 E1.82675
G1 X119.264 Y12.626 E.01682
G1 X160.874 Y54.236 E1.85054
G1 X160.874 Y54.771 E.01682
G1 X118.729 Y12.626 E1.87434
G1 X118.195 Y12.626 E.01679
G1 X160.874 Y55.305 E1.89809
G1 X160.874 Y55.84 E.01682
G1 X117.66 Y12.626 E1.92188
G1 X117.125 Y12.626 E.01682
G1 X160.874 Y56.375 E1.94567
G1 X160.874 Y56.91 E.01682
G1 X116.59 Y12.626 E1.96947
G1 X116.055 Y12.626 E.01682
G1 X160.874 Y57.445 E1.99326
G1 X160.874 Y57.98 E.01682
M73 P1 R216
G1 X115.52 Y12.626 E2.01705
G1 X114.985 Y12.626 E.01682
G1 X160.874 Y58.515 E2.04085
G1 X160.874 Y59.049 E.01679
G1 X114.451 Y12.626 E2.0646
G1 X113.916 Y12.626 E.01682
G1 X160.874 Y59.584 E2.08839
G1 X160.874 Y60.119 E.01682
G1 X113.381 Y12.626 E2.11218
G1 X112.846 Y12.626 E.01682
G1 X160.874 Y60.654 E2.13598
G1 X160.874 Y61.189 E.01682
G1 X112.311 Y12.626 E2.15977
G1 X111.776 Y12.626 E.01682
G1 X160.874 Y61.724 E2.18356
G1 X160.874 Y62.259 E.01682
G1 X111.241 Y12.626 E2.20736
G1 X110.707 Y12.626 E.01679
G1 X160.874 Y62.793 E2.2311
G1 X160.874 Y63.328 E.01682
G1 X110.172 Y12.626 E2.2549
M73 P2 R216
G1 X109.637 Y12.626 E.01682
G1 X160.874 Y63.863 E2.27869
G1 X160.874 Y64.398 E.01682
G1 X109.102 Y12.626 E2.30248
G1 X108.567 Y12.626 E.01682
G1 X160.874 Y64.933 E2.32628
G1 X160.874 Y65.468 E.01682
G1 X108.032 Y12.626 E2.35007
G1 X107.497 Y12.626 E.01682
G1 X160.874 Y66.003 E2.37386
G1 X160.874 Y66.537 E.01679
G1 X106.963 Y12.626 E2.39761
G1 X106.428 Y12.626 E.01682
M73 P2 R215
G1 X160.874 Y67.072 E2.42141
G1 X160.874 Y67.607 E.01682
G1 X105.893 Y12.626 E2.4452
G1 X105.358 Y12.626 E.01682
G1 X160.874 Y68.142 E2.46899
G1 X160.874 Y68.677 E.01682
G1 X104.823 Y12.626 E2.49279
G1 X104.288 Y12.626 E.01682
G1 X160.874 Y69.212 E2.51658
G1 X160.874 Y69.747 E.01682
G1 X103.753 Y12.626 E2.54037
G1 X103.219 Y12.626 E.01679
G1 X160.874 Y70.281 E2.56412
G1 X160.874 Y70.816 E.01682
G1 X102.684 Y12.626 E2.58792
G1 X102.149 Y12.626 E.01682
G1 X160.874 Y71.351 E2.61171
G1 X160.874 Y71.886 E.01682
G1 X101.614 Y12.626 E2.6355
G1 X101.079 Y12.626 E.01682
G1 X160.874 Y72.421 E2.6593
G1 X160.874 Y72.956 E.01682
G1 X100.544 Y12.626 E2.68309
G1 X100.009 Y12.626 E.01682
G1 X160.874 Y73.491 E2.70688
G1 X160.874 Y74.025 E.01679
G1 X99.475 Y12.626 E2.73063
G1 X99.126 Y12.626 E.01098
M73 P2 R214
G1 X99.126 Y12.813 E.00588
G1 X160.874 Y74.56 E2.74613
G1 X160.874 Y75.095 E.01682
G1 X99.126 Y13.348 E2.74613
G1 X99.126 Y13.883 E.01682
G1 X160.874 Y75.63 E2.74613
G1 X160.874 Y76.165 E.01682
G1 X99.126 Y14.418 E2.74613
G1 X99.126 Y14.953 E.01682
G1 X160.874 Y76.7 E2.74613
G1 X160.874 Y77.235 E.01682
G1 X99.126 Y15.487 E2.74615
G1 X99.126 Y16.022 E.01682
G1 X160.874 Y77.769 E2.74613
G1 X160.874 Y78.304 E.01682
G1 X99.126 Y16.557 E2.74613
G1 X99.126 Y17.092 E.01682
G1 X160.874 Y78.839 E2.74613
G1 X160.874 Y79.374 E.01682
G1 X99.126 Y17.627 E2.74613
G1 X99.126 Y18.162 E.01682
G1 X160.874 Y79.909 E2.74613
G1 X160.874 Y80.444 E.01682
M73 P3 R214
G1 X99.126 Y18.697 E2.74613
G1 X99.126 Y19.231 E.01679
G1 X160.874 Y80.979 E2.74615
G1 X160.874 Y81.513 E.01679
G1 X99.126 Y19.766 E2.74613
G1 X99.126 Y20.301 E.01682
M73 P3 R213
G1 X143.321 Y64.495 E1.96549
G2 X141.86 Y63.569 I-12.039 J17.378 E.05441
G1 X99.126 Y20.836 E1.90051
G1 X99.126 Y21.371 E.01682
G1 X140.694 Y62.939 E1.84868
G1 X139.67 Y62.449 E.0357
G1 X99.126 Y21.906 E1.80311
G1 X99.126 Y22.441 E.01682
G1 X138.734 Y62.048 E1.76149
G1 X137.885 Y61.734 E.02847
G1 X99.126 Y22.975 E1.72375
G1 X99.126 Y23.51 E.01682
G1 X137.085 Y61.469 E1.68817
G1 X136.321 Y61.239 E.02509
G1 X99.126 Y24.045 E1.65417
G1 X99.126 Y24.58 E.01682
G1 X135.598 Y61.051 E1.62202
G1 X134.908 Y60.896 E.02224
G1 X99.126 Y25.115 E1.59133
G1 X99.126 Y25.65 E.01682
G1 X134.233 Y60.757 E1.56133
G1 X133.598 Y60.656 E.02022
G1 X99.126 Y26.185 E1.53307
G1 X99.126 Y26.719 E.01679
G1 X132.972 Y60.565 E1.50525
G1 X132.372 Y60.5 E.01898
G1 X99.126 Y27.254 E1.47857
G1 X99.126 Y27.789 E.01682
G1 X131.782 Y60.445 E1.45233
G1 X131.214 Y60.411 E.01789
G1 X99.126 Y28.324 E1.42704
G1 X99.126 Y28.859 E.01682
G1 X130.653 Y60.386 E1.40212
G1 X130.115 Y60.382 E.01692
G1 X99.126 Y29.394 E1.37817
G1 X99.126 Y29.929 E.01682
G1 X129.576 Y60.379 E1.35422
G1 X129.062 Y60.399 E.01618
G1 X99.126 Y30.463 E1.33136
G1 X99.126 Y30.998 E.01682
G1 X128.549 Y60.42 E1.30852
G1 X128.054 Y60.46 E.01562
G1 X99.126 Y31.533 E1.28651
G1 X99.126 Y32.068 E.01682
G1 X127.563 Y60.505 E1.26469
G1 X127.082 Y60.559 E.01522
M73 P3 R212
G1 X99.126 Y32.603 E1.2433
G1 X99.126 Y33.138 E.01682
G1 X126.614 Y60.625 E1.22247
G1 X126.145 Y60.691 E.01489
G1 X99.126 Y33.673 E1.20161
G1 X99.126 Y34.207 E.01679
G1 X125.695 Y60.776 E1.18162
G1 X125.247 Y60.862 E.01435
G1 X99.126 Y34.742 E1.16167
G1 X99.126 Y35.277 E.01682
G1 X124.805 Y60.955 E1.14201
G1 X124.375 Y61.06 E.01392
G1 X99.126 Y35.812 E1.12289
G1 X99.126 Y36.347 E.01682
G1 X123.945 Y61.165 E1.10377
G1 X123.528 Y61.284 E.01364
G1 X99.126 Y36.882 E1.08524
G1 X99.126 Y37.417 E.01682
G1 X123.116 Y61.406 E1.0669
G1 X122.704 Y61.529 E.01352
G1 X99.126 Y37.951 E1.0486
G1 X99.126 Y38.486 E.01682
G1 X122.308 Y61.668 E1.03099
G1 X121.912 Y61.807 E.0132
G1 X99.126 Y39.021 E1.01337
G1 X99.126 Y39.556 E.01682
G1 X121.521 Y61.95 E.99596
G1 X121.141 Y62.105 E.01291
G1 X99.126 Y40.091 E.97906
G1 X99.126 Y40.626 E.01682
G1 X120.761 Y62.26 E.96216
G1 X120.387 Y62.421 E.0128
G1 X99.126 Y41.161 E.94553
G1 X99.126 Y41.695 E.01679
G1 X120.023 Y62.592 E.92936
G1 X119.658 Y62.762 E.01266
G1 X99.126 Y42.23 E.91313
G1 X99.126 Y42.765 E.01682
G1 X119.301 Y62.94 E.89725
G1 X118.951 Y63.125 E.01245
G1 X99.126 Y43.3 E.88169
G1 X99.126 Y43.835 E.01682
G1 X118.601 Y63.31 E.86612
G1 X118.259 Y63.502 E.01233
G1 X99.126 Y44.37 E.85089
G1 X99.126 Y44.905 E.01682
G1 X117.924 Y63.702 E.83599
G1 X117.588 Y63.901 E.01228
